docs/img/Telegram_24.svg

<svg width="24" height="24" viewBox="0 0 24 24" fill="none" xmlns="http://www.w3.org/2000/svg">
<path d="M3.25676 11.5121C4.99591 10.5596 6.93727 9.76455 8.75118 8.96546C11.8718 7.65662 15.0048 6.37045 18.1695 5.17305C18.7852 4.96904 19.8915 4.76955 20 5.67684C19.9406 6.96116 19.6962 8.23795 19.5286 9.51474C19.1032 12.3225 18.6115 15.1207 18.132 17.9192C17.9668 18.8515 16.7924 19.334 16.041 18.7374C14.2352 17.5245 12.4154 16.3234 10.6326 15.0824C10.0486 14.4923 10.5902 13.6449 11.1118 13.2236C12.5991 11.766 14.1765 10.5277 15.5861 8.99487C15.9663 8.08185 14.8428 8.85131 14.4723 9.0871C12.4361 10.4824 10.4497 11.9628 8.3029 13.1891C7.20633 13.7893 5.92824 13.2764 4.83216 12.9414C3.84941 12.5368 2.40928 12.1292 3.25666 11.5123L3.25676 11.5121Z" fill="#FF0033"/>
</svg>

<svg xmlns="http://www.w3.org/2000/svg" width="24" height="24" fill="none"><path fill="#F03" d="M3.257 11.512c1.739-.952 3.68-1.747 5.494-2.547 3.12-1.308 6.254-2.595 9.419-3.792.615-.204 1.721-.403 1.83.504-.06 1.284-.304 2.561-.471 3.838-.426 2.807-.918 5.606-1.397 8.404-.165.933-1.34 1.415-2.091.818-1.806-1.212-3.626-2.414-5.408-3.655-.584-.59-.043-1.437.479-1.858 1.487-1.458 3.065-2.696 4.474-4.23.38-.912-.743-.143-1.114.093-2.036 1.395-4.022 2.876-6.17 4.102-1.096.6-2.374.087-3.47-.248-.983-.404-2.423-.812-1.575-1.429"/></svg>
